X: 38150
T: Sporting Paddy
R: reel
M: 4/4
K: Gmajor
ge~e2 gede|ge~e2 a2ga|bgaf gedg|efge dBAG||
g2fg edBd|ge~e2 a2ga|bgaf gfed|efge dBAG||

